X:104
T:Lewis Races . THO5.104
M:C
L:1/8
B:Thompson's Complete Collection of 200 Favourite Dances Vol.5
F:https://www.libraryofdance.org/manuals/1780c-Thompson-Compleat-5.pdf
Z:vmp. Peter Dunk 2024
Q:1/4=140
K:A
dcBA GABc|dcBA cdBc|dcBA GABc|dcBA e2E2:|
|:ecec dBdB|cAcA B2E2|ecec dBdB|cABG A2 A,2:|
W:
W:Turn your Partner with your right hand and cast off ./.
W:Turn with your right hand and cast off another Couple ./:
W:Lead up to the top and cast off :/.
W:Right and Left :/:

